components/Common/Svg/svgs/mouse.svg

<svg width="40" height="40" viewBox="0 0 40 40" fill="none" xmlns="http://www.w3.org/2000/svg">
<path d="M19.9585 36.6676H20.0002C26.4318 36.6676 31.6668 31.4343 31.6668 25.0009V15.0009C31.6668 8.59928 26.4552 3.37762 20.0318 3.33428H19.9318C13.5318 3.37095 8.3335 8.59595 8.3335 15.0009V25.0009C8.3335 31.4343 13.5485 36.6676 19.9585 36.6676ZM11.6668 15.0009C11.6699 12.7961 12.5454 10.682 14.1022 9.1206C15.6589 7.55918 17.7703 6.6773 19.9752 6.66762C24.5835 6.67762 28.3335 10.4159 28.3335 15.0009V25.0009C28.3335 29.5959 24.5952 33.3343 20.0002 33.3343H19.9585C15.3102 33.3343 11.6668 29.6743 11.6668 25.0009V15.0009Z" fill="#161616"/>
<path d="M18.3335 10.0009H21.6668V20.0009H18.3335V10.0009Z" fill="#161616"/>
</svg>

<svg width="40" height="40" viewBox="0 0 40 40" fill="none" xmlns="http://www.w3.org/2000/svg"><path d="M19.959 36.668H20c6.432 0 11.667-5.234 11.667-11.667V15c0-6.402-5.212-11.623-11.635-11.667h-.1c-6.4.037-11.598 5.262-11.598 11.667v10c0 6.433 5.215 11.667 11.625 11.667ZM11.667 15a8.345 8.345 0 0 1 8.308-8.333c4.608.01 8.358 3.748 8.358 8.333v10c0 4.595-3.738 8.333-8.333 8.333h-.041c-4.649 0-8.292-3.66-8.292-8.333V15Z" fill="#161616"/><path d="M18.334 10h3.333v10h-3.334V10Z" fill="#161616"/></svg>
